src/actions/16/format-align-vertical-bottom.svg

<svg viewBox="0 0 16 16" xmlns="http://www.w3.org/2000/svg">
 <defs>
  <style type="text/css">.ColorScheme-Text {
        color:#2e3440;
      }</style>
 </defs>
 <path class="ColorScheme-Text" d="m7 2v7h-2l3 3 3-3h-2v-7h-2zm-5 11v1h12v-1h-12z" fill="currentColor"/>
</svg>

<svg xmlns="http://www.w3.org/2000/svg" viewBox="0 0 16 16">
  <defs id="defs3051">
    <style type="text/css" id="current-color-scheme">
      .ColorScheme-Text {
        color:#2e3440;
      }
      </style>
  </defs>
 <path style="fill:currentColor;fill-opacity:1;stroke:none" 
     d="M 7 2 L 7 9 L 5 9 L 8 12 L 11 9 L 9 9 L 9 2 L 7 2 z M 2 13 L 2 14 L 14 14 L 14 13 L 2 13 z "
     class="ColorScheme-Text"
     />
</svg>
